client/resources/iconsets/breeze/src/svg/16x16/icon_folder_contact.svg

<svg xmlns="http://www.w3.org/2000/svg" width="16" height="16"><path d="M8 1a3 3 0 1 0 0 6 3 3 0 1 0 0-6zm0 7a6 5 0 0 0-6 5 6 2 0 0 0 6 2 6 2 0 0 0 6-2 6 5 0 0 0-6-5z" fill="#6d6d70"/><path d="M8 1a3 3 0 0 0-3 3h1 5 3V3h-3.176A3 3 0 0 0 8 1z" fill="#19b5f1"/></svg>

<svg xmlns="http://www.w3.org/2000/svg" width="16" height="16" viewBox="0 0 16 16">
  <path
     style="fill:#6d6d70"
     d="M 8 1 A 3 3 0 0 0 5 4 A 3 3 0 0 0 8 7 A 3 3 0 0 0 11 4 A 3 3 0 0 0 8 1 z M 8 8 A 6 5 0 0 0 2 13 A 6 2 0 0 0 8 15 A 6 2 0 0 0 14 13 A 6 5 0 0 0 8 8 z "
     />
  <path
     style="fill:#19b5f1"
     d="M 8 1 A 3 3 0 0 0 5 4 L 6 4 L 11 4 L 14 4 L 14 3 L 10.824219 3 A 3 3 0 0 0 8 1 z "
     />
</svg>
